!!!OTL: Yangchenghuupan yipianhong
!!!ARE: Asia, China,ÿJiangsu Changshu
!! III, 433
!!!SCT: C1784
!!!YEM: Copyright 1995, estate of Helmut Schaffrath.
**kern
*ICvox
*Ivox
*M4/4
*k[b-e-]
*B-:
{8gg
8gg
8gg
8ff
4gg
4bb-
=1
8ccc
16fff
16ddd
2.ccc}
=2
{8ddd
16ccc
16ddd
8ccc
16bb-
16gg
8.gg
16bb-
8ccc
16ddd
16ccc
=3
2.ff
4r}
=4
{8dd
16dd
16cc
8dd
8ff
4gg
8bb-
16ccc
16bb-
=5
2.dd
4r}
=6
{8fff
16fff
16ddd
8ccc
8fff
[2ccc
=7
8ccc]
8ddd
8gg
8gg
4ccc
16ccc
16bb-
8gg
=8
2.ff
4r}
==
!!!AGN: Shange, Baimao shange
!! Freely
!!!AMT: simple quadruple
!!!AIN: vox
!!!EED: Helmut Schaffrath
!!!EEV: 1.0
*-
!!!ONB: Tied note syntax fixed by Craig Sapp, 2004/05/03/
